!!!COM: Schubert, Franz
!!!CDT: 1797/01/31/-1828/11/19/
!!!CNT: Austrian
!!!OTL: String Quartet No. 10 in E-flat Major, Op. 125, No. 1
!!!ODT: 1813/11//
!!!PDT: 1840
!!!SCA: D 87
!!!OPS: Op. 125
!!!ONM: No. 1
!!!OMV: Mvmt. 3
!!!OMD: Adagio
**kern	**dynam	**kern	**dynam	**kern	**dynam	**kern	**dynam
*staff4	*staff4	*staff3	*staff3	*staff2	*staff2	*staff1	*staff1
*Icello	*Icello	*Iviola	*Iviola	*Ivioln	*Ivioln	*Ivioln	*Ivioln
*clefF4	*clefF4	*clefC3	*clefC3	*clefG2	*clefG2	*clefG2	*clefG2
*k[b-e-a-]	*k[b-e-a-]	*k[b-e-a-]	*k[b-e-a-]	*k[b-e-a-]	*k[b-e-a-]	*k[b-e-a-]	*k[b-e-a-]
*M6/8	*M6/8	*M6/8	*M6/8	*M6/8	*M6/8	*M6/8	*M6/8
*MM40	*MM40	*MM40	*MM40	*MM40	*MM40	*MM40	*MM40
=1-	=1-	=1-	=1-	=1-	=1-	=1-	=1-
(4.E-\	f	[4.B-/	f	(4.G/ 4.e-/	f	(4.G/ 4.e-/	.
8BB-/)	.	8B-/]	.	&(8B-/&)) 8d/	.	&(8B-/&)) 8f/	.
8r	.	8r	.	8r	.	8r	.
8r	.	8r	.	8r	.	8r	.
=2	=2	=2	=2	=2	=2	=2	=2
(4.BB-/	.	(4.B-/	.	(4.d/	.	(4.G/ 4.e-/	.
8EE-/)	.	8e-\)	.	8e-/)	.	&(8B-/&)) 8f/	.
8r	.	8r	.	8r	.	8r	.
8r	.	8r	.	8r	.	8r	.
=3	=3	=3	=3	=3	=3	=3	=3
[2.E-\	.	(4e-\	p	[2.e-/	p	[4.e-/	.
.	.	8d-\	.	.	.	.	.
.	.	4c\	.	.	.	(8e-/L]	.
.	.	.	.	.	.	8a-/	.
.	.	8A-/)	.	.	.	8cc/J)	.
=4	=4	=4	=4	=4	=4	=4	=4
2.E-\]	p	(8G/L	.	2.e-/]	p	[4.b-\	.
.	.	8B-/	.	.	.	.	.
.	.	8e-/J)	.	.	.	.	.
.	.	(8G/L	.	.	.	(8b-\L]	.
.	.	8B-/	.	.	.	8ee-\	.
.	.	8e-/J)	.	.	.	8g\J)	.
=5	=5	=5	=5	=5	=5	=5	=5
2.AA-/	.	(8A-\L	.	[4.c/	.	(8.f/L	.
.	.	8c\	.	.	.	.	.
.	.	.	.	.	.	16g/Jk	.
.	.	8f\J)	.	.	.	16.a-/LL	.
.	.	.	.	.	.	32b-/JJk)	.
.	.	(8A-/L	.	4c/]	.	(8cc/L	.
.	.	8c/	.	.	.	8a-/	.
.	.	8A-/J)	.	8c/	.	8f/J)	.
=6	=6	=6	=6	=6	=6	=6	=6
[4.BB-/	.	4G/	.	2.B-/	.	4e-/	.
.	.	8A-/	.	.	.	8f/	.
8BB-/]	.	4.F/	.	.	.	4.d/	.
8r	.	.	.	.	.	.	.
8r	.	.	.	.	.	.	.
=7	=7	=7	=7	=7	=7	=7	=7
(4.E-\	.	[4.B-/	f	(4.G/ 4.e-/	f	(4.G/ 4.e-/	.
8BB-/)	f	8B-/]	.	&(8B-/&)) 8d/	.	&(8B-/&)) 8f/	.
8r	.	8r	.	8r	.	8r	.
8r	.	8r	.	8r	.	8r	.
=8	=8	=8	=8	=8	=8	=8	=8
(4.BB-/	.	(4.B-/	.	(4.d/	.	(4.G/ 4.e-/	.
8EE-/)	.	8e-\)	.	8e-/)	.	&(8B-/&)) 8f/	.
8r	.	8r	.	8r	.	8r	.
8r	.	8r	.	8r	.	8r	.
=9	=9	=9	=9	=9	=9	=9	=9
(4.G\	p	(8B-\L	.	[2.e-/	p	[4.dd-\	.
.	.	8d-\	.	.	.	.	.
.	.	8e-\J)	.	.	.	.	.
4.E-\)	.	(8G/L	.	.	.	(8dd-\L]	p
.	.	8B-/	.	.	.	8b-\	.
.	.	8d-/J)	.	.	.	8g\J)	.
=10	=10	=10	=10	=10	=10	=10	=10
(2.AA-/	.	(8c/L	.	(4e-/]	.	[4.a-/	.
.	.	8A-/	.	.	.	.	.
.	.	8c/J)	.	8en/)	.	.	.
.	.	(8f\L	.	(4f/	.	(8a-/L]	.
.	.	8a-\	.	.	.	8cc/	.
.	.	8A-\J)	.	8c/)	.	8f/J)	.
=11	=11	=11	=11	=11	=11	=11	=11
2.BB-/)	.	(8G/L	.	[2.B-/	.	(8.e-/L	.
.	.	8B-/	.	.	.	.	.
.	.	.	.	.	.	16f/L	.
.	.	8e-/J)	.	.	.	16.g/	.
.	.	.	.	.	.	32a-/JJk)	.
.	.	(8G/L	.	.	.	(8b-/L	.
.	.	8B-/	.	.	.	8g/	.
.	.	8e-/J)	.	.	.	8e-/J)	.
=12	=12	=12	=12	=12	=12	=12	=12
(4.BB-/	.	(8G/L	.	4B-/]	.	(4B-/	.
.	.	8G-/	.	.	.	.	.
.	.	8F/J	.	16An/LL	.	16c/LL	.
.	.	.	.	16A-/JJ	.	16d/JJ	.
4E-\)	.	4E-/)	.	4G/	.	4e-/)	.
8r	.	8r	.	8r	.	8r	.
=13	=13	=13	=13	=13	=13	=13	=13
(4BB-'/	pp	(4B-'/	pp	(4d'/	pp	(4f'/	.
8BB-'/)	.	8B-'/	.	8d'/)	.	8f'/)	.
(4BB-/	.	4B-'/	.	(4d/	.	(4f/	.
8GG/)	.	8B-'/)	.	8en/)	.	8g/)	.
=14	=14	=14	=14	=14	=14	=14	=14
(4FF/	.	(4c/	.	(4f/	.	(4a-/	.
8C/	.	8B-/	.	8en/	.	8cc\)	.
4F\)	.	4A-/)	.	4f/)	.	4f/	.
8r	.	8r	.	8r	.	8r	.
=15	=15	=15	=15	=15	=15	=15	=15
4AA-'/	.	(4A-'/	.	4c'/	.	(4e-'/	.
8AA-'/	.	8A-'/	.	8c'/	.	8e-'/)	.
(4AA-/	.	4A-'/	.	(4c/	.	(4e-/	.
8FF/)	.	8A-'/)	.	8d/)	.	8f/)	.
=16	=16	=16	=16	=16	=16	=16	=16
(4EE-/	.	(4B-/	.	(4e-/	.	(4g/	.
8BB-/	.	8A-/	.	8d/	.	8b-\)	.
4E-\)	.	8G/L)	.	4e-/)	.	4e-/	.
.	.	(8E-'/	.	.	.	.	.
8r	.	8E-'/J)	.	8r	.	8r	.
=17	=17	=17	=17	=17	=17	=17	=17
[2.E-\	.	(8E-/L	.	[2.e-/	.	[4.e-/	.
.	.	8e-/	.	.	.	.	.
.	.	8d-/J)	.	.	.	.	.
.	.	(4c\	.	.	.	(8e-/L]	.
.	.	.	.	.	.	8a-/	.
.	.	8A-/	.	.	.	8cc/J)	.
=18	=18	=18	=18	=18	=18	=18	=18
2.E-\]	.	8G/L	.	2.e-/]	.	[4.b-\	.
.	.	8B-/	.	.	.	.	.
.	.	&(8e-/J&)	.	.	.	.	.
.	.	8G/L	.	.	.	(8b-\L]	.
.	.	8B-/	.	.	.	8ee-\	.
.	.	&(8e-/J&)	.	.	.	8g\J)	.
=19	=19	=19	=19	=19	=19	=19	=19
2.AA-/	.	8A-/L	.	[4.c/	.	(8.f/L	.
.	.	8c/	.	.	.	.	.
.	.	.	.	.	.	16g/Jk	.
.	.	8f/J	.	.	.	16.a-/LL	.
.	.	.	.	.	.	32b-/JJk)	.
.	.	8A-/L	.	(4c/]	.	(4cc\	.
.	.	8c/	.	.	.	.	.
.	.	8c/J	.	8f/)	.	8ff\)	.
=20	=20	=20	=20	=20	=20	=20	=20
[4.A-\	f	4.c-/	f	([4.d/ 4.cc-/	f	[4.f/ [4.dd/	.
8A-\]	.	&(8B-/&)	.	8d/]) 8b-/	.	8f/] 8dd/]	.
8r	.	8r	.	8r	.	8r	.
8AA-/	p	8B-/	p	(8d/	.	(8b-\	p
=21	=21	=21	=21	=21	=21	=21	=21
(4.GG/	.	4e-\	p	[4.e-/)	.	&([4.ee-\&))	.
.	.	8d-\	.	.	.	.	.
8AA-/)	.	&(4c\&)	.	4e-/]	.	(16ee-\LL]	.
.	.	.	.	.	.	16bn\	.
8r	.	.	.	.	.	16dd\	.
.	.	.	.	.	.	16cc\	.
8AA-/	.	8A-/	.	8c/	.	16a-\	.
.	.	.	.	.	.	16f\JJ)	.
=22	=22	=22	=22	=22	=22	=22	=22
2.BB-/	.	4G/	.	(4B-/	.	[4.e-/	.
.	.	8G-/	.	8An/	.	.	.
.	.	&(4.F/&)	.	4.A-/)	.	(8e-/L]	.
.	.	.	.	.	.	8f/	.
.	.	.	.	.	.	8d/J)	.
=23	=23	=23	=23	=23	=23	=23	=23
4EE-/	.	4E-/	.	(4G/	.	4.e-/	.
8r	.	&(8e-\&)	.	8g/)	.	.	.
4r	.	8e-\L	.	(8g/L	.	4r	.
.	.	8d\	.	8f/	.	.	.
8r	.	&(8c\J&)	.	8e-/J)	.	8r	.
=24	=24	=24	=24	=24	=24	=24	=24
16BB-'/LL	.	16B-'/LL	.	16d'/LL	.	[4.bb-\	p
16BB-'/	.	16F'/	.	16d'/	.	.	.
16BB-'/	.	16F'/	.	16d'/	.	.	.
16BB-'/	.	16F'/	.	16d'/	.	.	.
16BB-'/	.	16F'/	.	16d'/	.	.	.
16BB-'/JJ	.	16F'/JJ	.	16d'/JJ	.	.	.
8BB-/	.	8F/	.	8d/	.	(8bb-\L]	.
8r	.	8r	.	8r	.	8ff\	.
8r	.	8r	.	8r	.	8ddd\J)	.
=25	=25	=25	=25	=25	=25	=25	=25
16D'\LL	p	16F'/LL	p	16B-'/LL	.	[4.bb-\	.
16D'\	.	16F'/	.	16B-'/	.	.	.
16D'\	.	16F'/	.	16B-'/	.	.	.
16D'\	.	16F'/	.	16B-'/	.	.	.
16D'\	.	16F'/	.	16B-'/	.	.	.
16D'\JJ	.	16F'/JJ	.	16B-'/JJ	.	.	.
8D\	.	8F/	.	8B-/	.	(8bb-\L]	.
8r	.	8r	.	8r	.	8ff\	.
8r	.	8r	.	8r	.	8dd\J)	.
=26	=26	=26	=26	=26	=26	=26	=26
16E-'\LL	.	16G'/LL	.	16c'/LL	.	[4.cc\	.
16E-'\	.	16G'/	.	16c'/	.	.	.
16E-'\	.	16G'/	.	16c'/	.	.	.
16E-'\	.	16G'/	.	16c'/	.	.	.
16E-'\	.	16G'/	.	16c'/	.	.	.
16E-'\JJ	.	16G'/JJ	.	16c'/JJ	.	.	.
8E-\	.	8G/	.	8c/	.	(8cc\L]	.
8r	.	8r	.	8r	.	8ee-\	.
8r	.	8r	.	8r	.	8gg\J)	.
=27	=27	=27	=27	=27	=27	=27	=27
16F'\LL	.	16An'/LL	.	16c'/LL	.	[4.ff\	.
16F'\	.	16A'/	.	16c'/	.	.	.
16F'\	.	16A'/	.	16c'/	.	.	.
16F'\	.	16A'/	.	16c'/	.	.	.
16F'\	.	16A'/	.	16c'/	.	.	.
16F'\JJ	.	16A'/JJ	.	16c'/JJ	.	.	.
8F\	.	8A/	.	8c/	.	(8ff\L]	.
8r	.	8r	.	8r	.	8gg\	.
8r	.	8r	.	8r	.	8ee-\J)	.
=28	=28	=28	=28	=28	=28	=28	=28
(16BB-'/LL	pp	8B-/L	pp	(4.d/	.	8dd\	.
16BB-'/	.	.	.	.	.	.	.
16BB-'/	.	8F/	.	.	.	8r	.
16BB-'/	.	.	.	.	.	.	.
16BB-'/	.	8B-/J	.	.	.	8r	.
16BB-'/JJ)	.	.	.	.	.	.	.
[4.BB-/	.	8An/L	.	4.e-/)	.	(16ff'\LL	pp
.	.	.	.	.	.	16ff'\	.
.	.	8F/	.	.	.	16ff'\	.
.	.	.	.	.	.	16ff'\	.
.	.	&(8A/J&)	.	.	.	16ff'\	.
.	.	.	.	.	.	16ff'\JJ)	.
=29	=29	=29	=29	=29	=29	=29	=29
16BB-/LL]	.	8B-/L	.	(4.d/	.	8ff\	.
(16BB-'/	.	.	.	.	.	.	.
16BB-'/	.	8F/	.	.	.	8r	.
16BB-'/	.	.	.	.	.	.	.
16BB-'/	.	8B-/J	.	.	.	8r	.
16BB-'/JJ)	.	.	.	.	.	.	.
[4.BB-'/	.	8An/L	.	4.e-/)	.	(16ff'\LL	.
.	.	.	.	.	.	16ff'\	.
.	.	8F/	.	.	.	16ff'\	.
.	.	.	.	.	.	16ff'\	.
.	.	&(8A/J&)	.	.	.	16ff'\	.
.	.	.	.	.	.	16ff'\JJ)	.
=30	=30	=30	=30	=30	=30	=30	=30
16BB-/LL]	.	8B-/L	.	4.d/	.	[4.ff\	.
(16BB-'/	.	.	.	.	.	.	.
16BB-'/	.	8F/	.	.	.	.	.
16BB-'/	.	.	.	.	.	.	.
16BB-'/	.	&(8B-/J&)	.	.	.	.	.
16BB-'/JJ)	.	.	.	.	.	.	.
4BB-'/	.	8d\L	.	(4f/	.	(4ff\]	.
.	.	8B-\	.	.	.	.	.
8EE-/	.	&(8e-\J&)	.	8g/)	.	8gg\)	.
=31	=31	=31	=31	=31	=31	=31	=31
4.FF/	.	8An/L	.	(8c/L	.	(8.cc\L	.
.	.	8F/	.	8An/	.	.	.
.	.	.	.	.	.	16dd\Jk	.
.	.	&(8A/J&)	.	8c/J)	.	16.ee-\LL	.
.	.	.	.	.	.	32ff\JJk)	.
4.BB-/	.	8B-\L	.	(8d/L	.	(4dd\	.
.	.	8d\	.	8B-/	.	.	.
.	.	&(8B-\J&)	.	8d/J)	.	8bb-\)	.
=32	=32	=32	=32	=32	=32	=32	=32
(4BB-/	.	8d\L	.	(8f/L	.	[4.ff\	.
.	.	8B-\	.	8d/	.	.	.
8AA-/)	.	&(8c\J&) 8d\	.	8f/J)	.	.	.
(4GG/	.	4Bn\ 4d\	.	(8f/L	.	(8ff\L]	.
.	.	.	.	8d/	.	8ff#\	.
8EE-/)	.	&(8B-\&) 8e-\	.	8e-/J)	.	8gg\J)	.
=33	=33	=33	=33	=33	=33	=33	=33
(4.FF/	.	8An/L	.	(8c/L	.	(8.cc\L	.
.	.	8F/	.	8An/	.	.	.
.	.	.	.	.	.	16dd\Jk	.
.	.	&(8A/J&)	.	8c/J)	.	16.ee-\LL	.
.	.	.	.	.	.	32ff\JJk)	.
4.BB-/)	.	8B-\L	.	(8d/L	.	8dd\	.
.	.	8d\	.	8f/	.	8r	.
.	.	&(8B-\J&)	.	8d/J)	.	8r	.
=34	=34	=34	=34	=34	=34	=34	=34
4r	.	8An/L	.	(4.e-/	.	(16ff\LL	.
.	.	.	.	.	.	16ff\	.
.	.	8F/	.	.	.	16ff\	.
.	.	.	.	.	.	16ff\	.
8r	.	8A/J	.	.	.	16ff\	.
.	.	.	.	.	.	16ff\JJ)	.
(16BB-'/LL	.	8B-/L	.	4.d/)	.	(4ff\	.
16BB-'/	.	.	.	.	.	.	.
16BB-'/	.	8F/	.	.	.	.	.
16BB-'/	.	.	.	.	.	.	.
16BB-'/	.	&(8B-/J&)	.	.	.	8bb-\)	.
16BB-'/JJ)	.	.	.	.	.	.	.
=35	=35	=35	=35	=35	=35	=35	=35
[4.BB-/	.	8An/L	.	(4.e-/	.	(16ff\LL	.
.	.	.	.	.	.	16ff\	.
.	.	8F/	.	.	.	16ff\	.
.	.	.	.	.	.	16ff\	.
.	.	8A/J	.	.	.	16ff\	.
.	.	.	.	.	.	16ff\JJ)	.
(16BB-/LL]	.	8B-/L	.	4.d/)	.	8ff\	.
16BB-'/	.	.	.	.	.	.	.
16BB-'/	.	8F/	.	.	.	8r	.
16BB-'/	.	.	.	.	.	.	.
16BB-'/	.	&(8B-/J&)	.	.	.	8r	.
16BB-'/JJ)	.	.	.	.	.	.	.
=36	=36	=36	=36	=36	=36	=36	=36
[2.BB-/	.	8B-/L	.	[2.d/	.	8f/ 8dd/	.
.	.	8F/	.	.	.	8r	.
.	.	&(8B-/J&)	.	.	.	8r	.
.	.	8B-/L	.	.	.	8d/ 8b-/	.
.	.	8F/	.	.	.	8r	.
.	.	&(8B-/J&)	.	.	.	8r	.
=37	=37	=37	=37	=37	=37	=37	=37
2.BB-;/]	.	2.F;/	.	2.d;/]	.	2.B-;/	.
=38	=38	=38	=38	=38	=38	=38	=38
2.r	.	16B-/LL	.	2.r	.	2.r	.
.	.	16B-/	pp	.	.	.	.
.	.	16B-/	.	.	.	.	.
.	.	16B-/	.	.	.	.	.
.	.	16B-/	.	.	.	.	.
.	.	16B-/JJ	.	.	.	.	.
.	.	4.B-/	.	.	.	.	.
=39	=39	=39	=39	=39	=39	=39	=39
(4.A-\	p	4.B-/	p	(4.d/	.	(4.ff\	p
8G\)	.	4.B-/	.	8e-/)	.	8ee-\)	.
8r	.	.	.	8r	.	8r	.
8r	.	.	.	8r	.	8r	.
=40	=40	=40	=40	=40	=40	=40	=40
(4.A-\	.	4.B-/	.	4.d/	.	(4ff\	.
.	.	.	.	.	.	8gg\)	.
8G\)	.	4.B-/	.	(4e-/	.	(4ee-\	.
8r	.	.	.	.	.	.	.
(8F\	.	.	.	8d/)	.	8dd\)	.
=41	=41	=41	=41	=41	=41	=41	=41
4.E-\	.	4.An/	.	(8.c/L	.	(8.cc\L	.
.	.	.	.	16e-/k	.	16ee-\k	.
.	.	.	.	8g/J)	.	8gg\J)	.
8D\)	.	&(16B-/LL&)	.	8f/	.	8ff\	.
.	.	16F'/	.	.	.	.	.
8r	.	16F'/	.	8r	.	8r	.
.	.	16F'/	.	.	.	.	.
8r	.	16F'/	.	8r	.	8r	.
.	.	16F'/JJ	.	.	.	.	.
=42	=42	=42	=42	=42	=42	=42	=42
(4.E-\	.	4.F/	.	(4.An/	.	(4.cc\	.
8D\)	.	4.F/	.	8B-/)	.	8b-\)	.
8r	.	.	.	8r	.	8r	.
8r	.	.	.	8r	.	8r	.
=43	=43	=43	=43	=43	=43	=43	=43
(4.E-\	.	4.F/	.	(4.An/	.	(4cc\	.
.	.	.	.	.	.	8dd\)	.
8D\)	.	4.F/	.	8Bn/)	.	4b-\	.
8r	.	.	.	8r	.	.	.
(8D\	.	.	.	8f/	.	8ff\	.
=44	=44	=44	=44	=44	=44	=44	=44
4.AAn/	.	4.F/	.	(8f/L	.	(8ff\L	.
.	.	.	.	8en/)	.	8een\)	.
.	.	.	.	8e-'/J	.	8ee-\J	.
4.BB-/)	.	4.F/	.	(8e-/L	.	(8ee-\L	.
.	.	.	.	8d/)	.	8dd\)	.
.	.	.	.	8d'/J	.	8dd\J	.
=45	=45	=45	=45	=45	=45	=45	=45
(4E-\	.	4.F/	.	(16c/LL	.	(16cc\LL	.
.	.	.	.	16Bn/	.	16bn\	.
.	.	.	.	16c/	.	16cc\	.
.	.	.	.	16d/	.	16dd\	.
8F\)	.	.	.	16e-/	.	16ee-\	.
.	.	.	.	16c/JJ)	.	16cc\JJ)	.
4D\	.	4.F/	.	(8B-/L	.	(8b-\L	.
.	.	.	.	8d/	.	8dd\	.
(8D\	.	.	.	8f/J)	.	8ff\J)	.
=46	=46	=46	=46	=46	=46	=46	=46
4.AAn/	.	4.F/	.	(8f/L	.	(8ff\L	.
.	.	.	.	8en/)	.	8een\)	.
.	.	.	.	8e-/J	.	8ee-\J	.
4.BB-/)	.	4.F/	.	(8e-/L	.	(8ee-\L	.
.	.	.	.	8d/)	.	8dd\)	.
.	.	.	.	8d/J	.	8dd\J	.
=47	=47	=47	=47	=47	=47	=47	=47
.	.	.	.	dq/	.	ddq/	.
(4E-\	.	4.F/	.	(16c/LL	.	(16cc\LL	.
.	.	.	.	16Bn/	.	16bn\	.
.	.	.	.	16c/	.	16cc\	.
.	.	.	.	16d/	.	16dd\	.
8F\)	.	.	.	16e-/	.	16ee-\	.
.	.	.	.	16c/JJ)	.	16cc\JJ)	.
4D\	.	4.F/	.	4B-/	.	4b-\	.
8D\	.	.	.	8Bn/	.	8bn\	.
=48	=48	=48	=48	=48	=48	=48	=48
.	.	.	.	dq/	.	ddq/	.
(4E-\	.	4.F/	.	(16c/LL	.	(16cc\LL	.
.	.	.	.	16Bn/	.	16bn\	.
.	.	.	.	16c/	.	16cc\	.
.	.	.	.	16d/	.	16dd\	.
8F\)	.	.	.	16e-/	.	16ee-\	.
.	.	.	.	16c/JJ)	.	16cc\JJ)	.
(4D\	.	4.F/	.	4B-/	.	4b-\	.
8F\)	.	.	.	8r	.	8r	.
=49	=49	=49	=49	=49	=49	=49	=49
.	.	.	.	dq/	.	ddq/	.
(4E-\	.	4.F/	.	(16c/LL	.	(16cc\LL	.
.	.	.	.	16Bn/	.	16bn\	.
.	.	.	.	16c/	.	16cc\	.
.	.	.	.	16d/	.	16dd\	.
8F\)	.	.	.	16e-/	.	16ee-\	.
.	.	.	.	16c/JJ)	.	16cc\JJ)	.
4.D\	.	4.F/	.	4B-/	.	4b-\	.
.	.	.	.	8r	.	8r	.
=50	=50	=50	=50	=50	=50	=50	=50
[2.BB-/	.	4a-\	.	[4.b-\	.	(4ff\	.
.	.	8g\	.	.	.	8ee-\	.
.	.	8f\L	.	(8b-/L]	.	8dd\L	.
.	.	8e-\	.	8an/	.	8cc\	.
.	.	&(8d\J&)	.	8b-/J)	.	8b-\J)	.
=51	=51	=51	=51	=51	=51	=51	=51
2.BB-/_	pp	4.c\	pp	(4.e-/	pp	(4.an/	pp
.	.	&(4.d\&)	.	4.f/)	.	4.a-/	.
=52	=52	=52	=52	=52	=52	=52	=52
2.BB-/]	.	4e-\	.	(4.e-/	.	4.g/	.
.	.	8B-/	.	.	.	.	.
.	.	&(4.A-/&)	.	4.d/)	.	4.f/)	.
=53	=53	=53	=53	=53	=53	=53	=53
2.r	.	2.r	.	2.r	.	2.r	.
=54	=54	=54	=54	=54	=54	=54	=54
(4.E-\	.	[4.B-/	f	(4.G/ 4.e-/	f	(4.G/ 4.e-/	.
8BB-/)	f	8B-/]	f	&(8B-/&)) 8d/	.	8B-/) 8f/	.
8r	.	8r	.	8r	.	8r	.
8r	.	8r	.	8r	.	8r	.
=55	=55	=55	=55	=55	=55	=55	=55
(4.BB-/	.	4.B-/	.	(4.d/	.	(4.G/ 4.e-/	.
8EE-/)	.	&(8e-\&)	.	8e-/)	.	8B-/) 8f/	.
8r	.	8r	.	8r	.	8r	.
8r	.	8r	.	8r	.	8r	.
=56	=56	=56	=56	=56	=56	=56	=56
[2.E-\	p	4e-\	p	[2.e-/	p	[4.e-/	p
.	.	8d-\	.	.	.	.	.
.	.	4c\	.	.	.	(8e-/L]	.
.	.	.	.	.	.	8a-/	.
.	.	&(8A-/&)	.	.	.	8cc/J)	.
=57	=57	=57	=57	=57	=57	=57	=57
2.E-\]	.	8G/L	.	2.e-/]	.	[4.b-\	.
.	.	8B-/	.	.	.	.	.
.	.	&(8e-/J&)	.	.	.	.	.
.	.	8G/L	.	.	.	(8b-\L]	.
.	.	8B-/	.	.	.	8ee-\	.
.	.	&(8e-/J&)	.	.	.	8g\J)	.
=58	=58	=58	=58	=58	=58	=58	=58
2.AA-/	.	8A-\L	.	[4.c/	.	(8.f/L	.
.	.	8c\	.	.	.	.	.
.	.	.	.	.	.	16g/Jk	.
.	.	&(8f\J&)	.	.	.	16.a-/LL	.
.	.	.	.	.	.	32b-/JJk)	.
.	.	8A-/L	.	4c/]	.	(8cc/L	.
.	.	8c/	.	.	.	8a-/	.
.	.	&(8A-/J&)	.	8c/	.	8f/J)	.
=59	=59	=59	=59	=59	=59	=59	=59
[4.BB-/	.	4G/	.	2.B-/	.	4e-/	.
.	.	8A-/	.	.	.	8f/	.
8BB-/]	.	4.F/	.	.	.	4.d/	.
8r	.	.	.	.	.	.	.
8r	.	.	.	.	.	.	.
=60	=60	=60	=60	=60	=60	=60	=60
(4.E-\	.	[4.B-/	f	(4.G/ 4.e-/	f	(4.G/ 4.e-/	.
8BB-/)	f	8B-/]	.	&(8B-/&)) 8d/	.	8B-/) 8f/	.
8r	.	8r	.	8r	.	8r	.
8r	.	8r	.	8r	.	8r	.
=61	=61	=61	=61	=61	=61	=61	=61
(4.BB-/	.	4.B-/	.	(4.d/	.	(4.G/ 4.e-/	.
8EE-/)	.	&(8e-\&)	.	8e-/)	.	8B-/) 8f/	.
8r	.	8r	.	8r	.	8r	.
8r	.	8r	.	8r	.	8r	.
=62	=62	=62	=62	=62	=62	=62	=62
(4.G\	p	8B-\L	p	[2.e-/	p	[4.dd-\	p
.	.	8d-\	.	.	.	.	.
.	.	&(8e-\J&)	.	.	.	.	.
4.E-\)	.	8G/L	.	.	.	(8dd-\L]	.
.	.	8B-/	.	.	.	8b-\	.
.	.	&(8d-/J&)	.	.	.	8g\J)	.
=63	=63	=63	=63	=63	=63	=63	=63
(2.AA-/	.	8c/L	.	(4e-/]	.	[4.a-/	.
.	.	8A-/	.	.	.	.	.
.	.	&(8c/J&)	.	8en/)	.	.	.
.	.	8f\L	.	(4f/	.	(8a-/L]	.
.	.	8a-\	.	.	.	8cc/	.
.	.	&(8A-\J&)	.	8c/)	.	8f/J)	.
=64	=64	=64	=64	=64	=64	=64	=64
2.BB-/)	.	8G/L	.	[2.B-/	.	(8.e-/L	.
.	.	8B-/	.	.	.	.	.
.	.	.	.	.	.	16f/L	.
.	.	&(8e-/J&)	.	.	.	16.g/	.
.	.	.	.	.	.	32a-/JJk)	.
.	.	8G/L	.	.	.	(8b-/L	.
.	.	8B-/	.	.	.	8g/	.
.	.	&(8e-/J&)	.	.	.	8e-/J)	.
=65	=65	=65	=65	=65	=65	=65	=65
(4.BB-/	.	8G/L	.	4B-/]	.	(4B-/	.
.	.	8G-/	.	.	.	.	.
.	.	8F/J	.	16An/LL	.	16c/LL	.
.	.	.	.	16A-/JJ	.	16d/JJ	.
4E-\)	.	&(4E-/&)	.	4G/	.	4e-/)	.
8r	.	8r	.	8r	.	8r	.
=66	=66	=66	=66	=66	=66	=66	=66
(4BB-'/	pp	4B-'/	pp	(4d'/	pp	(4f'/	pp
8BB-'/)	.	8B-'/	.	8d'/)	.	8f'/)	.
(4BB-/	.	4B-'/	.	(4d/	.	(4f/	.
8GG/)	.	&(8B-'/&)	.	8en/)	.	8g/)	.
=67	=67	=67	=67	=67	=67	=67	=67
(4FF/	.	4c/	.	(4f/	.	(4a-/	.
8C/	.	8B-/	.	8en/	.	8cc\)	.
4F\)	.	&(4A-/&)	.	4f/)	.	4f/	.
8r	.	8r	.	8r	.	8r	.
=68	=68	=68	=68	=68	=68	=68	=68
4AA-'/	.	4A-'/	.	4c'/	.	(4e-'/	.
8AA-'/	.	8A-'/	.	8c'/	.	8e-'/)	.
(4AA-/	.	4A-'/	.	(4c/	.	(4e-/	.
8FF/)	.	&(8A-'/&)	.	8d/)	.	8f/)	.
=69	=69	=69	=69	=69	=69	=69	=69
(4EE-/	.	4B-/	.	(4e-/	.	(4g/	.
8BB-/	.	8A-/	.	8d/	.	8b-\)	.
4E-\)	.	&(8G/L&)	.	4e-/)	.	4e-/	.
.	.	8E-'/	.	.	.	.	.
8r	.	&(8E-'/J&)	.	8r	.	8r	.
=70	=70	=70	=70	=70	=70	=70	=70
[2.E-\	.	8E-/L	.	[2.e-/	.	[4.e-/	.
.	.	8e-/	.	.	.	.	.
.	.	&(8d-/J&)	.	.	.	.	.
.	.	4c\	.	.	.	(8e-/L]	.
.	.	.	.	.	.	8a-/	.
.	.	8A-/	.	.	.	8cc/J)	.
=71	=71	=71	=71	=71	=71	=71	=71
2.E-\]	.	8G/L	.	2.e-/]	.	[4.b-\	.
.	.	8B-/	.	.	.	.	.
.	.	8e-/J	.	.	.	.	.
.	.	8G/L	.	.	.	(8b-\L]	.
.	.	8B-/	.	.	.	8ee-\	.
.	.	8e-/J	.	.	.	8g\J)	.
=72	=72	=72	=72	=72	=72	=72	=72
2.AA-/	.	8A-/L	.	[4.c/	.	(8.f/L	.
.	.	8c/	.	.	.	.	.
.	.	.	.	.	.	16g/Jk	.
.	.	8f/J	.	.	.	16.a-/LL	.
.	.	.	.	.	.	32b-/JJk)	.
.	.	8A-/L	.	(4c/]	.	(4cc\	.
.	.	8c/	.	.	.	.	.
.	.	8c/J	.	8f/)	.	8ff\)	.
=73	=73	=73	=73	=73	=73	=73	=73
[4.A-\	f	4.c-/	f	([4.d/ 4.cc-/	f	[4.f/ [4.dd/	f
8A-\]	.	8B-/	.	8d/]) 8b-/	.	8f/] 8dd/]	.
8r	.	8r	.	8r	.	8r	.
8AA-/	p	8B-/	.	8d/	.	8b-\	p
=74	=74	=74	=74	=74	=74	=74	=74
(4.GG/	.	4e-\	p	[4.e-/	p	[4.ee-\)	.
.	.	8d-\	.	.	.	.	.
8AA-/)	.	4c\	.	4e-/]	.	16ee-\LL]	.
.	.	.	.	.	.	16bn\	.
8r	.	.	.	.	.	16dd\	.
.	.	.	.	.	.	16cc\	.
8AA-/	.	8A-/	.	8c/	.	16a-\	.
.	.	.	.	.	.	16f\JJ	.
=75	=75	=75	=75	=75	=75	=75	=75
2.BB-/	.	4G/	.	(4B-/	.	[4.e-/	.
.	.	8G-/	.	8An/	.	.	.
.	.	4.F/	.	4.A-/)	.	8e-/L]	.
.	.	.	.	.	.	8f/	.
.	.	.	.	.	.	8d/J	.
=76	=76	=76	=76	=76	=76	=76	=76
[2.EE-/	.	[4.E-/	.	(8G/L	.	[4.e-/	.
.	.	.	.	8B-/	.	.	.
.	.	.	.	8d-/J	.	.	.
.	.	4E-/]	.	4c/	.	4e-/]	.
.	.	8e-\	.	8c-/)	.	8a-/	.
=77	=77	=77	=77	=77	=77	=77	=77
2.EE-/_	.	4.e-\	.	(4B-/	.	4g/	.
.	.	.	.	8G/	.	8b-\	.
.	.	4B-/	.	4B-/	.	4d/	.
.	.	8d\	.	8A-/)	.	8f/	.
=78	=78	=78	=78	=78	=78	=78	=78
2.EE-/_	.	4e-\	.	(8G/L	.	[4.e-/	.
.	.	.	.	8B-/	.	.	.
.	.	8E-/	.	8d-/J	.	.	.
.	.	4E-/	.	4c/	.	4e-/]	.
.	.	8e-\	.	8c-/)	.	8a-/	.
=79	=79	=79	=79	=79	=79	=79	=79
2.EE-/]	.	4.e-\	.	(4B-/	.	4g/	.
.	.	.	.	8G/	.	8b-\	.
.	.	4B-/	.	4B-/	.	4d/	.
.	.	8d\	.	8A-/)	.	8f/	.
=80	=80	=80	=80	=80	=80	=80	=80
(16E-'\LL	pp	8e-/L	pp	(8G/L	pp	8e-/	.
16E-'\	.	.	.	.	.	.	.
16E-'\	.	8B-/	.	8B-/	.	8r	.
16E-'\	.	.	.	.	.	.	.
16E-'\	.	8G/J	.	8e-/J)	.	8r	.
16E-'\JJ)	.	.	.	.	.	.	.
[4.E-\	.	4.A-/	.	(8d/L	.	16bb-'\LL	pp
.	.	.	.	.	.	16bb-'\	.
.	.	.	.	8B-/	.	16bb-'\	.
.	.	.	.	.	.	16bb-'\	.
.	.	.	.	8d/J)	.	16bb-'\	.
.	.	.	.	.	.	16bb-'\JJ	.
=81	=81	=81	=81	=81	=81	=81	=81
16E-\LL]	.	4.G/	.	(8e-/L	.	4.bb-\	.
(16E-'\	.	.	.	.	.	.	.
16E-'\	.	.	.	8B-/	.	.	.
16E-'\	.	.	.	.	.	.	.
16E-'\	.	.	.	8e-/J)	.	.	.
16E-'\JJ)	.	.	.	.	.	.	.
[4.E-\	.	4.A-/	.	(8d/L	.	16b-'\LL	.
.	.	.	.	.	.	16b-'\	.
.	.	.	.	8B-/	.	16b-'\	.
.	.	.	.	.	.	16b-'\	.
.	.	.	.	8d/J)	.	16b-'\	.
.	.	.	.	.	.	16b-'\JJ	.
=82	=82	=82	=82	=82	=82	=82	=82
16E-\LL]	.	[4.G/	.	(8e-/L	.	[4.b-\	.
(16E-'\	.	.	.	.	.	.	.
16E-'\	.	.	.	8B-/	.	.	.
16E-'\	.	.	.	.	.	.	.
16E-'\	.	.	.	8e-/J)	.	.	.
16E-'\JJ)	.	.	.	.	.	.	.
4E-\	.	8G/L]	.	(8B-/L	.	4b-\]	.
.	.	8E-/	.	8G/	.	.	.
8AA-/	.	8A-/J	.	8c/J)	.	8cc\	.
=83	=83	=83	=83	=83	=83	=83	=83
(4.GG/	.	8F/L	.	(8d/L	.	8.f/L	.
.	.	8B-/	.	8B-/	.	.	.
.	.	.	.	.	.	16g/Jk	.
.	.	8F/J	.	8d/J)	.	16.a-/LL	.
.	.	.	.	.	.	32b-/JJk	.
4.E-\)	.	8G/L	.	(8e-/L	.	4g/	.
.	.	8B-/	.	8B-/	.	.	.
.	.	8e-/J	.	8G/J)	.	8ee-\	.
=84	=84	=84	=84	=84	=84	=84	=84
(4E-\	.	8G/L	.	(8B-/L	.	[4.b-\	.
.	.	8E-/	.	8G/	.	.	.
8D-\)	.	8F/J 8G/	.	8B-/J)	.	.	.
(4C/	.	8En/L 8G/	.	(8B-/L	.	8b-\L]	.
.	.	8E/	.	8G/	.	8bn\	.
8AA-/)	.	8E-/J	.	8A-/J)	.	8cc\J	.
=85	=85	=85	=85	=85	=85	=85	=85
(4.BB-/	.	8F/L	.	(8d/L	.	8.f/L	.
.	.	8B-/	.	8B-/	.	.	.
.	.	.	.	.	.	16g/Jk	.
.	.	8F/J	.	8d/J)	.	16.a-/LL	.
.	.	.	.	.	.	32b-/JJk	.
4.EE-/)	.	8G/L	.	(8e-/L	.	8g/	.
.	.	8B-/	.	8B-/	.	8r	.
.	.	8G/J	.	8e-/J)	.	8r	.
=86	=86	=86	=86	=86	=86	=86	=86
4r	pp	4.A-/	pp	(8d/L	pp	16b-'\LL	.
.	.	.	.	.	.	16b-'\	.
.	.	.	.	8B-/	.	16b-'\	.
.	.	.	.	.	.	16b-'\	.
8r	.	.	.	8d/J)	.	16b-'\	.
.	.	.	.	.	.	16b-'\JJ	.
(16EE-'/LL	pp	8G/L	.	(8e-/L	.	4b-\	.
16EE-'/	.	.	.	.	.	.	.
16EE-'/	.	8B-/	.	8B-/	.	.	.
16EE-'/	.	.	.	.	.	.	.
16EE-'/	.	8e-/J	.	8G/J)	.	8ee-\	.
16EE-'/JJ)	.	.	.	.	.	.	.
=87	=87	=87	=87	=87	=87	=87	=87
4.EE-/	.	8d\L	.	(4.A-/	.	16b-'\LL	.
.	.	.	.	.	.	16b-'\	.
.	.	8B-\	.	.	.	16b-'\	.
.	.	.	.	.	.	16b-'\	.
.	.	8d\J	.	.	.	16b-'\	.
.	.	.	.	.	.	16b-'\JJ	.
(16EE-'/LL	.	8e-/L	.	4.G/)	.	8g/	.
16EE-'/	.	.	.	.	.	.	.
16EE-'/	.	8B-/	.	.	.	8r	.
16EE-'/	.	.	.	.	.	.	.
16EE-'/	.	8G/J	.	.	.	8r	.
16EE-'/JJ)	.	.	.	.	.	.	.
=88	=88	=88	=88	=88	=88	=88	=88
[2.EE-/	.	8G/L	.	(8B-/L	.	8g/ 8b-/	.
.	.	8B-/	.	8G/	.	8r	.
.	.	8G/J	.	8B-/J)	.	8r	.
.	.	8G/L	.	(8B-/L	.	8B-/ 8g/	.
.	.	8B-/	.	8G/	.	8r	.
.	.	8G/J	.	8B-/J)	.	8r	.
=89	=89	=89	=89	=89	=89	=89	=89
2.EE-/]	.	2.G/	.	2.B-/	.	2.G/ 2.e-/	.
==	==	==	==	==	==	==	==
*-	*-	*-	*-	*-	*-	*-	*-
!!!ENC: Craig Stuart Sapp
!!!END: 2004/09/07/
